!!!OTL: 1414. Kriegers Abschied vom Lieb.
!!!ODT: 1842
!!!ARE: Europa, Mitteleuropa, Deutschland, Schlesien; Thueringen; Berlin
!!!SCT: E1414
!!!TXL: @@DE
!!!YEM: Copyright 1995, estate of Helmut Schaffrath.
**kern	**text
*ICvox	*
*M3/8	*
*k[f#]	*
*G:	*
=1	=1
!LO:TX:a:t=Mäßig langsam.	!
!LO:TX:a:t=Aus Schleſten, Thüringen u. Berlin. 1842.	!
{8dL	Mäd-
8gJ	.
8g	-chen
=2	=2
8gL	mei-
8bJ	.
8dd	-ner
=3	=3
8bL	See-
8aJ	.
8a}	-len,
=4	=4
{8dL	bald
8f#J	.
8a	ver-
=5	=5
4dd	-laß
8cc	ich
=6	=6
4b	dich,
8r}	.
=7||	=7||
{4dd	und
8b	du
=8	=8
8bL	bleibſt
8ccJ	.
8dd	mir
=9	=9
8ddL	e-
8ccJ	.
8cc}	-wig,
=10	=10
{4cc	und
8a	du
=11	=11
8aL	bleibſt
8bJ	.
8cc	mir
=12	=12
8eeL	e-
8ddJ	.
8dd}	-wig
=13	=13
{8bL	un-
8gJ	.
8b	-ver-
=14	=14
8ddL	-än-
8ccJ	.
8a	-der-
=15	=15
4g	-lich.
8r}	.
==	==
!!!AGN: Staende -, Soldaten - Lied, Krieg, Abschied
!!!ONB: ESAC (Essen Associative Code) Database: ERK3
!!!AMT: simple triple
!!!AIN: vox
!!!EED: Helmut Schaffrath
!!!EEV: 1.0
!!!GTL: Staendelieder (Berufslieder). 1. Soldaten- und Kriegslieder. Soldatenlieder seit dem 30jaehr. Kriege.
!!!URL-scan: https://rosdok.uni-rostock.de/mcrviewer/recordIdentifier/rosdok_ppn745177999/iview2/phys_0280.iview2?x=-128.77276441889308&y=1625.674576274585&scale=0.5870222003877485&rotation=0&layout=singlePageLayout
!!!ENC: Anna Maria Matuszewska
!!!EEV: 2024/12/31
*-	*-
